X: 1
T: The Wednesday Night Strathspey   [Eb]
C: Gerard Buchanan
R: strathspey
B: RSCDS 47-10
N: Tune for It Wisnae Me
Z: 2014 John Chambers <jc:trillian.mit.edu>
M: C
L: 1/8
K: Eb
B |\
"Eb"G<E E>E "Ab"A<c c>A | "Eb"G<B G>E "Bb"F2 A2 |\
"Eb"G<B B>G "Ab"A<c c>A | "Eb"G<B "Bb7"A>F "Eb"E3 ||
B |\
"Eb"G<E E>E "Ab"A<c c>A | "Eb"G<B G>E "Bb"F2 A2 |\
"Eb"(3GAB B>G "Ab"(3ABc c>A | "Eb"B<G "Bb7"F>G "Eb"E3 |]
B |\
"Eb"e<e d<B "Ab"c<c B<G | "Eb"B<G F>E "Bb"F2 A2 |\
"Eb"(3GFE E>G "Ab"(3ABc c>e | "Bb"d<d c>d "Eb"e3 ||
B |\
"Eb"G<B e>B "Ab"c<e "Eb"B<G | "Eb"BG "F7"A/G/F/E/ "Bb"D<F F>A |\
"Eb"B<G G<B "Ab"A<c "F7"c<e | "Bb"B<G F>G "Eb"E3 |]
%%center Book47/4710-Wednesday_Night_Strathspey-Eb-16-4.abc

%%sep 1 1 500
%%sep 1 1 500

